X:1
T:Haec quae ter triplici
T:Orlando di Lasso
T:Source : Magnum opus musicum (1604)---München---First print A.Berg---1575. Editor : André Vierendeels (14/04/15).
T:Notes : Original clefs : C1, C4, F4 Original note values have been halved Editorial accidentals above the staff Square brackets indicate ligatures Music collected by Ferdinando and Rodolpho di Lasso
T:Haec quae ter triplici
C:Orlando di Lasso
%%score [ 1 2 3 ]
L:1/8
Q:1/4=76
M:2/2
K:F
V:1 treble nm="Superius" snm="S"
V:2 treble-8 nm="Tenor" snm="T"
V:3 bass nm="Bassus" snm="B"
V:1
 c8 | A4 c4 | z2 F4 B2- | B2 AG AB c2- | c2 B2 A2 F2 | G2 A4 G2 | B3 c d2 A2 | F2 G3 F F2- | %8
w: Haec|quae _|ter tri-||* pli- ci ce-|ci- ne- runt|or- * * di-|ne quon- * *|
 FE/D/ E2 F2 C2 | DE FG A3 G/F/ | E2 G2 ^F2 G2 | A8- | A4 z2 A2 | c3 c A2 A2 | F4 E4 | z2 E2 A4 | %16
w: * * * * dam, ter|tri- * * * * * *|* nus cha- ry-|tum|_ pi-|e- ri- dun- que|cho- rus,|Guil- hel-|
 A4 z2 F2 | B4 G4 | z2 G2 B4 | F4 z2 F2 | E4 E2 F2- | FF G4 FE | D2 d3 c/B/ c2 | G2 A4 G2 | %24
w: mo, Guil-|hel- mo,|Fer- nan-|do, Er-|ne- sto fra-|* tri- bus _ _|_ al- * * *|mi, qui et|
 F3 E FG A2 | D2 G4 F2 | E2 A3 A F2 | B6 A2 | D4 E4 | z2 E3 E E2 | F4 G4 | A4 A3 A | D2 D2 F2 E2 | %33
w: tri- * * * *|ni re- fe-|runt ma- xi- ma|do- na|DE- I,|san- gui- ne|quos di-|vum san- gui-|ne, quos di- vum|
 A3 A F2 D2 | G3 G G2 c2- | cB BA/G/ A4 | F2 F2 BA Bc | d4 G2 G2 | FE FG AG AB | c4 d4 | z2 B4 A2 | %41
w: ge- nu- it ter|ma- xi- mus il-||le, Al- ber- * * *|* tus, Al-|ber- * * * * * * *|* tus|pa- tri-|
 G4 c3 c | A2 G2 C2 DE | FG CD E F2 E | F2 D2 D3 D | C2 D4 A2 | A6 F2 | B2 d3 c/B/ c2 | %48
w: i glo- ri-|a pri- ma so- *||li, per- pe- tu-|ae fi- dei|mo- nu-|men- * * * *|
 d2 B3 A/G/ A2 | D2 F2 F3 G | AB c3 B AG | F4 _E4 | D2 D2 F3 F | E8 | z2 A4 G2 | BA AG/F/ G4 | %56
w: tum et _ _ _|pi- gnus ho- *||* no-|ris, can- di- du-|la|Las- sus|men- * * * * *|
 F4 E3 E | A3 G F2 E2 | A4 A4 | z4 z2 A2- | A2 G2 F3 G | A2 A2 D2 F2 | F4 B2 G2- | GF F3 E/D/ E2 | %64
w: te a- ni-|mo- * * que|di- cat,|Las-|* sus men- *|* te a- ni-|mo- que di-||
 !fermata!F8 |] %65
w: cat.|
V:2
 z4 c4- | c4 A4- | A4 d4 | c6 _e2- | e2 d2 d4 | z2 c2 d2 e2- | e2 d2 B2 c2 | d2 B3 A AG/F/ | %8
w: Haec|_ quae|_ ter|_ tri-|* pli- ci|ce- ci- ne-|* runt or- di-|ne quon- * * * *|
 G4 F2 A2 | Bc dB c3 B/A/ | GA B2 A2 c2- | c2 c2 F4 | z2 D2 F3 F | E2 F4 c2- | cB/A/ B2 c4- | %15
w: * dam, ter|tri- * * * * * *|* * * nus cha-|* ry- tum|pi- e- ri-|dum- que cho-|* * * * rus,|
 c4 z2 c2 | f4 d4 | z2 d2 _e4 | B4 z2 d2 | d4 c4- | c4 A3 A | B3 A/G/ B2 A2- | AG/F/ G2 A3 B | c8 | %24
w: _ Guil-|hel- mo,|Fer- nan-|do, Er-|ne- sto|_ fra- tri-|bus _ _ _ al-||mi,|
 z2 d4 c2 | B4 A4 | c3 c c2 d2- | dd _e2 d2 d2 | =B4 c2 G2- | GG G2 A4- | A2 B4 AG | FG AB cd c2- | %32
w: qui et|tri- ni|re- fe- runt ma-|* xi- ma do- na|DE- I, san-|* gui- ne quos|_ di- * *||
 cB/A/ B2 c2 c2- | cc F2 A2 B2- |"^b""^b" BB e2 e4 | d3 c/B/ c2 c2 | d4 d4 | z2 G2 BA Bc | d4 c4 | %39
w: * * * * vum ge-|* nu- it ter ma-|* xi- mus il-|le _ _ _ Al-|ber- tus,|Al- ber- * * *|* tus,|
 z2 F2 BA Bc | d3 c/B/ d2 c2 | c2 B2 A4 | c3 c A2 B2- | B2 A2 G4 | F4 z2 F2 | F3 F B2 c2- | %46
w: Al- ber- * * *|* * * * tus|pa- tri- i|glo- ri- a pri-|* ma so-|li, per-|pe- tu- ae fi-|
 c2 c2 d4 | z2 G2 d2 f2- | fe d3 c/B/ c2 | B2 A2 d2 d2 | c2 FG AB c2- | cB/A/ B2 c2 G2 | %52
w: * de- i|mo- nu- men-||tum et pi- gnus|ho- no- * * * *|* * * * ris, can-|
 B3 B A2 d2- | d2 c2 c2 B2 | c3 c c4 | F2 f3 e/d/ e2 | A2 d4 c2 | F4 A2 c2- | cc d2 f4 | e4 AB cd | %60
w: di- du- la Las-|* sus men- te|a- ni- mo-|qua di- * * *|cat, Las- sus|men- te a-|* ni- mo que|di- cat _ _ _|
 c4 z2 d2- | d2 c2 B4 | A2 d4 B2 | c2 A2 G4 | !fermata!F8 |] %65
w: _ Las-|* sus men-|te a- ni-|mo- que di-|cat.|
V:3
 z8 | F,8 | D,4 B,,4 | F,3 E, F,2 C,2 | G,4 z2 D,2 | E,2 F,4 C,2 | G,6 F,2 | D,B,, _E,2 D,4 | %8
w: |Haec|quae ter|tri- * * pli-|ci ce-|ci- ne- runt|or- di-|ne _ _ quon-|
 C,4 z2 F,2 | B,,3 A,,/G,,/ F,,G,, A,,B,, | C,2 G,,2 D,2 E,2 | F,4 z2 D,2 | F,3 F, D,4 | %13
w: dam, ter|tri- * * * * * *|* nus cha- ry-|tum pi-|e- ri- tum-|
 A,,2 A,3 G, F,E, | D,4 C,2 A,,2 | A,4 A,4 | z2 F,2 B,4 | G,4 z2 C,2 | _E,4 B,,4 | z2 B,,2 A,,4- | %20
w: que cho- * * *|* rusn Guil-|hel- mo,|Guil- hel-|mo,- Fer-|nan do,|Er- ne-|
 A,,2 A,,2 z2 D,2- | D,D, _E,2 D,3 C, | B,,4 A,,4 | z2 F,4 _E,2 | D,C, B,,C, D,E, F,2 | %25
w: * sto fra-|* tri- bus al- *|* mi,|qui et|tri- * * * * * *|
 G,4 D,3 D, | A,2 F,3 F, B,2 | G,6 ^F,2 | G,4 C,4- | C,4 z4 | z8 | z2 F,3 F, F,2 | G,4 A,4 | %33
w: ni re- fe-|runt ma- xi- ma|do- na|DE- I,|_||san- gui- ne|quos di-|
 F,2 D,3 D, G,2 | _E,2 C,3 C, C,2 | G,4 F,2 F,2 | B,3 A, G,F, G,A, | B,4 _E,4 | z2 B,,2 F,E, F,G, | %39
w: vum ge- nu- it|ter ma- xi- mus|il- le Al-|ber- * * * * *|* tus,|Al- ber- * * *|
 A,2 A,2 G,F, G,A, | B,2 G,2 F,4 | z4 z2 F,2- | F,F, E,2 F,2 B,,C, | D,E, F,2 C,4 | %44
w: * tus pa- * * *|* tri- i|glo-|* ri- a pri- ma _|_ _ _ so-|
 D,2 B,,2 B,,3 B,, | A,,2 B,,4 F,2 | F,4 z2 D,2 | G,2 B,3 A,/G,/ A,2 | B,4 F,4 | %49
w: li, per- pe- tu-|ae fi- de-|i mo-|nu- men- * * *|tum et|
 G,2 D,2 B,,C, D,E, | F,G, A,2 F,3 E, | D,4 C,4 | z2 G,,2 D,3 D, | A,,2 A,4 G,2 | F,6 _E,2 | %55
w: pi- gnus ho- * * *|* * * no- *|* ris,|can- di- cu-|la Las- sus|men- te|
 D,3 D, C,2 C,2 | D,4 A,4 | z2 D,4 C,2 | F,4 D,2 A,2- | A,2 G,2 F,4- | F,2 _E,2 D,3 C,/B,,/ | %61
w: a- ni- mo- que|di- cat,|Las- sus|men- te,- Las-|* sus men-|* * te _ _|
 F,3 F, G,2 D,2- | D,C, B,,A,, G,,4 | A,,3 B,, C,4 | !fermata!F,,8 |] %65
w: a- ni- mo- que|_ _ _ _ _|di- * *|cat.|

